X: 10482
M: C|
L: 1/8
K: G
uD2 |\
g2bd (cB)AG | e2Bd (cB)AG | cdcB ABAG | F2D2 D2(G=F) |
ECEG cBAG | FDFA dcBA | Ggfe dcBA | B2G2 G2 :|


